X:1
T:Agnus Dei
T:Agnus Dei
T:Francesco Layolle
T:Source : Il primo libro di madrigali a 3 voci---Venetia---A.Gardano---1559. Editor : André Vierendeels (25/10/14).
T:Notes : Original clefs :  C4, C4, F4 Original note values have been halved Editorial accidentals above the staff Square bracket indicates ligature Based on the chanson "Adieu mes amours", excerpt from the parody mass.
C:Anonymous
%%score [ 1 2 3 ]
L:1/8
Q:1/4=120
M:2/2
K:F
V:1 treble-8 nm="Tenor 1" snm="T 1"
V:2 treble-8 nm="Tenor 2" snm="T 2"
V:3 bass nm="Bass" snm="B"
V:1
 z4 z2 d2 | f4 e2 d2- | dc A3 B cd | ed d3 c c2 | d8 | z2 B2 A2 B2- | B2 AG A2 B2 | F6 G2 | %8
w: A-|gnus De- *|||i,|qui tol- *|* * * lis pec-|ca- te|
 _E4 D4 | d4 G4 | c3 B AG F2- | F2 B4 A2- | A2 d4 c2 | d2 f3 e d2- | dB c2 A2 B2- | B2 c3 BAG | %16
w: mun- di,|pec- ca-|* * * * ta|_ mun- di,|_ pec- ca-|ta mun- * *|* * di, pec- ca-||
 F2 G4 F2 | G2 B3 A G2- | G2 F2 E2 D2- | DE FG AB c2- | cB GA Bc de | f2 d3 c/B/ c2 | F2 f2 f2 f2 | %23
w: |ta mun- * *|||||di, mi- se- re-|
 g3 e f3 e | d4 f4 | e2 d3 B c2 | F2 G4 F2 | B6 G2 | B8 |] %29
w: re _ no- *|bis, mi-|se- re- * *|re no- *||bis.|
V:2
 z8 | z8 | z8 | z4 G4 | B4 A4 | G4 d4- | d8- | d4 z2 G2 | B6 A2 | G4 d4 | z8 | z8 | z4 G4 | B4 A4 | %14
w: |||A-|gnus De-|* i,|_|* qui|tol- *|* lis|||pec-|ca- ta|
 G4 d4 | z4 G4 | B4 A4 | G4 d4 | z8 | z8 | z8 | z4 G4 | B4 A2 A2 | G4 d4 | z8 | z4 G4 | B4 A2 A2 | %27
w: mun- di,|pec-|ca- ta|mun- di,||||mi|se- re- re|no- bis,||mi-|se- re- re|
 G4 d4- | d8 |] %29
w: no- bis.|_|
V:3
 G,4 B,4 | A,4 G,3 F, | D,3 E, F,G, A,F, | G,3 F, E,D, E,2 | D,2 G,4 F,2 | G,4 F,2 G,2- | %6
w: A- gnus|De- * *|||i, qui tol-|lis pec- ca-|
 G,2 F,E, D,2 B,,C, | D,E, F,G, A,2 B,2- | B,A, G,4 F,2 | G,2 B,3 A, G,F, | E,2 F,3 E, D,C, | %11
w: * * * * ta _|_ _ _ _ _ mun-||di, pec- * * *||
 B,,A,, G,,2 B,,2 C,2 | D,3 F, E,4 | D,4 z2 D,2 | _E,4 D,4 |"^b" E,4 C,4 | D,8 | z2 G,,2 B,,4 | %18
w: * * * ca- ta|mun- * *|di, mi-|se- re-|re no-|bis,|mi- se-|
 A,,4 G,,3 A,, | B,,C, D,B,, C,3 D, | E,F, G,4 F,2 | D,2 F,2 E,4 | D,8 | z2 C,2 D,2 B,,2- | %24
w: re- re, _|_ _ _ _ _ _|* * mi- se-|re- re no-|bis,|mi- * se-|
 B,,2 B,3 A, F,2 | G,3 F, E,4 | D,8 | G,8- | G,8 |] %29
w: * re- * re|no- * *||bis.|_|

